svgs/sharp-regular/panel-fire.svg

<svg xmlns="http://www.w3.org/2000/svg" viewBox="0 0 640 512"><!--! Font Awesome Pro 6.6.0 by @fontawesome - https://fontawesome.com License - https://fontawesome.com/license (Commercial License) Copyright 2024 Fonticons, Inc. --><path d="M400 80L48 80l0 352 257.5 0c8.1 17.6 18.8 33.8 31.5 48L48 480 0 480l0-48L0 80 0 32l48 0 352 0 48 0 0 48 0 42.1-17 10.6c-9.1 5.7-19.7 13.2-31 22.4L400 80zM292.5 312L264 312l0-48 45.8 0c-7.4 15-13.4 31.1-17.2 48zM343 212.3c-3 3.8-6 7.7-8.9 11.7L96 224l0-96 256 0 0 73.4c-3.1 3.5-6.1 7.1-9 10.9zM232 264l0 48-48 0 0-48 48 0zm-80 0l0 48-48 0 0-48 48 0zM448 160l64 64 32-32c76.8 64 96 133.3 96 160c0 88.4-71.6 160-160 160s-160-71.6-160-160c0-89.6 85.3-165.3 128-192zm96 240.2c0-48-64-96-64-96s-64 48-64 96c0 35.3 28.7 64 64 64s64-28.7 64-64z"/></svg>

<svg xmlns="http://www.w3.org/2000/svg" viewBox="0 0 640 512"><!--! Font Awesome Pro 6.5.2 by @fontawesome - https://fontawesome.com License - https://fontawesome.com/license (Commercial License) Copyright 2024 Fonticons, Inc. --><path d="M400 80H48V432H305.5c8.1 17.6 18.8 33.8 31.5 48H48 0V432 80 32H48 400h48V80v42.1l-17 10.6c-9.1 5.7-19.7 13.2-31 22.4V80zM292.5 312H264V264h45.8c-7.4 15-13.4 31.1-17.2 48zM343 212.3c-3 3.8-6 7.7-8.9 11.7H96V128H352v73.4c-3.1 3.5-6.1 7.1-9 10.9zM232 264v48H184V264h48zm-80 0v48H104V264h48zM448 160l64 64 32-32c76.8 64 96 133.3 96 160c0 88.4-71.6 160-160 160s-160-71.6-160-160c0-89.6 85.3-165.3 128-192zm96 240.2c0-48-64-96-64-96s-64 48-64 96c0 35.3 28.7 64 64 64s64-28.7 64-64z"/></svg>
